icons/folder-desktop.svg

<svg xmlns="http://www.w3.org/2000/svg" viewBox="0 0 32 32"><path fill="#039be5" d="m13.844 7.536-1.288-1.072A2 2 0 0 0 11.276 6H4a2 2 0 0 0-2 2v16a2 2 0 0 0 2 2h24a2 2 0 0 0 2-2V10a2 2 0 0 0-2-2H15.124a2 2 0 0 1-1.28-.464Z"/><path fill="#b3e5fc" fill-rule="evenodd" d="M30 12H14a2 2 0 0 0-2 2v10a2 2 0 0 0 2 2h6v2h-2v2h8v-2h-2v-2h6a2 2 0 0 0 2-2V14a2 2 0 0 0-2-2Zm0 12H14V14h16Z"/></svg>

<svg xmlns="http://www.w3.org/2000/svg" viewBox="0 0 32 32"><path d="M13.84376,7.53645l-1.28749-1.0729A2,2,0,0,0,11.27591,6H4A2,2,0,0,0,2,8V24a2,2,0,0,0,2,2H28a2,2,0,0,0,2-2V10a2,2,0,0,0-2-2H15.12412A2,2,0,0,1,13.84376,7.53645Z" style="fill:#039be5"/><path d="M30,12H14a2,2,0,0,0-2,2V24a2,2,0,0,0,2,2h6v2H18v2h8V28H24V26h6a2,2,0,0,0,2-2V14A2,2,0,0,0,30,12Zm0,12H14V14H30Z" style="fill:#b3e5fc;fill-rule:evenodd"/></svg>
